public/backgrounds/wave-hero.svg

<svg width="1440" height="810" xmlns="http://www.w3.org/2000/svg"><path d="m0 220 34.3-14.7c34.4-14.6 103-44 171.5-43.6 68.5.3 136.9 30.3 205.4 23.1 68.5-7.1 137.1-51.5 205.8-62.5 68.7-11 137.3 11.4 206 26.5 68.7 15.2 137.3 23.2 205.8 15.5 68.5-7.6 136.9-31 205.4-35.8 68.5-4.8 137.1 8.8 171.5 15.7l34.3 6.8V0H0z" fill="#38bdf8"/></svg>

<svg id="visual" viewBox="0 0 1440 810" width="1440" height="810" xmlns="http://www.w3.org/2000/svg" xmlns:xlink="http://www.w3.org/1999/xlink" version="1.1"><path d="M0 220L34.3 205.3C68.7 190.7 137.3 161.3 205.8 161.7C274.3 162 342.7 192 411.2 184.8C479.7 177.7 548.3 133.3 617 122.3C685.7 111.3 754.3 133.7 823 148.8C891.7 164 960.3 172 1028.8 164.3C1097.3 156.7 1165.7 133.3 1234.2 128.5C1302.7 123.7 1371.3 137.3 1405.7 144.2L1440 151L1440 0L1405.7 0C1371.3 0 1302.7 0 1234.2 0C1165.7 0 1097.3 0 1028.8 0C960.3 0 891.7 0 823 0C754.3 0 685.7 0 617 0C548.3 0 479.7 0 411.2 0C342.7 0 274.3 0 205.8 0C137.3 0 68.7 0 34.3 0L0 0Z" fill="#38bdf8" stroke-linecap="round" stroke-linejoin="miter"></path></svg>
